X:1
T:N 3. THEME.
T: 53. COMMUNION
T:L. van BEETHOVEN (1770-1827)
T: Cette belle melodie, d'un sentiment expressif très intense, porte, à un très haut degré. Pempreinte du g'enie de Beethoven; quoique très simple, elle n'en est pas moins un chef-d'oeuvre. Jouer avec beaucoup d'expression en se conformant exactement aux nuances du texte, sans rien ajouter de plus. Le troisième motif, dans lequel la même formule se répète trois fois de suite dans des tonalités différentes et de plus èlevées, sera commencée mezzo-forte, en augmentant d'inténité a chaque modulation, afin d'arriver forte à la resolution en Fa # mineur, on diminuera ensuite en ralcntissant beaucoup jusqu' au point d'orgue, puis la phrase initale sera reprise pianissimo. Bien teuir compte des liaisons et de la registration.    
T:Louis Raffy Organistes Célébres Grands Maitres Classiques - VOLUME I
T:Louis Raffy Organistes Célébres Grands Maitres Classiques - VOLUME I
T:Louis Raffy Organistes Célébres Grands Maitres Classiques - VOLUME I
C:F. SCHUBERT (1797-1828)
Z:Louis Raffy Organistes Célébres Grands Maitres Classiques - VOLUME I
%%score { ( 1 3 ) | ( 2 4 ) }
L:1/8
Q:1/4=80
M:2/4
K:D
V:1 treble nm="Organ" snm="Org."
V:3 treble 
V:2 bass 
V:4 bass 
V:1
!p!"^Andante" (!3!F | F2 E2 | G3) (!3!G | G!<(!A!<)! B/G/F/!1!E/ |!>(! !3!F!>)!DD) !3!F | (F2 ED | %6
w: ||||||
 G3 (!3!G) |!<(! GA/B/!<)! A/!>(!G/F/!1!E/!>)! | !2!D2) z :: (!3!f | fd!4!c"^"!<(! !1!!3-5![DB-] | %11
w: |||||
 B!>(!!4!^A!<)!!>)!B) (!3!f |"_cresc." ed!4!cB |!>(! =A3!>)! G) |!p! (!3!F2 ED |{/D} [DG]3) (G | %16
w: |||||
 G!<(!A/B/ A/!<)!G/!>(!F/E/ | FD!>)!D) (f | f2 ed |{/d} [dg]3) (!3!g | %20
w: ||||
!<(! g!<)!a/b/ a/!>(!g/!>)!f/!1!e/ | !open!!2!d2) z :|!mf! (!3!d |!<(! d2!<)! c!>(!B | %24
w: ||||
 e2)!>)! z (!3!e |!<(! e2!<)!!>(! !1!d!2!c!>)! | !4!f2) z (!5!b |"_cresc." b2 a!3!^g | %28
w: ||||
!f! !1!!open!!5![cc']2) z!p! !2!f- | f2- f/(^e/!4!a/^g/ | f) z z/ (!1!^E/!4!A/^G/ | %31
w: |||
 F) z z/"_dim." (!1!^E/!4!A/^G/ |"_dim." F/^E/[Q:1/4=60]"_rit."A/^G/ !fermata!F)!pp! (!3!F | %33
w: |* * * * * a|
 F2 ED |{/D-} [DG]3) (G |!<(! G2!<)! A/!>(!B/A/G/!>)! | FDD)!p! (!3!f | f2 ed |{/d-} [dg]3) (g | %39
w: ||||||
!<(! g!<)!a/b/ a/g/!>(!f/!>)!!1!e/ | !2!d2) z (!3!f | ed!4!c"^" !1!!3-5![DB-] | %42
w: |||
!<(! B!4!^A!<)!!>(!!5!B) (!3!f!>)! |"_cresc." edcB) |!>(! (=A3!>)! G) |!p! (!3!F2 ED | %46
w: ||||
 [DG]3) !3!G |!<(! (GA/!<)!B/!>(! A/G/F/!>)!E/ | !3!FDD) (!3!f | f2 ed |{/d} [dg]3) (g | %51
w: |||||
!<(! g!<)!a/b/ a/!>(!g/!>)!f/!1!e/ | !2!d2)!p! !2!!5![Fd]2 | [Fd]4 |] %54
w: |||
V:2
 z | (!2![D,A,]2 !1![G,B,]!2![F,A,] | !5!!1![E,B,]3) z | !2!!1![A,C]2 !5![C,A,-]2 | %4
 !1!A,!3!F,F, z | !2![D,A,]2 [G,B,][F,A,] | [E,B,]3 z | [A,,C,G,]2 [A,,C,G,]2 | [D,F,]2 z :: z | %10
 z2 z F, | F,2- F, z | z2 z [B,D] | !2!!1![CE]3 !4!!2![A,C] | D!2!A, !1![G,B,]!2![F,A,] | %15
 [E,B,]3 z | [A,C]2 [C,A,]2 | A,F,F, z |[K:treble] z !2![DA][GB][FA] | [EB]3 z | [A,CG]2 [A,CG]2 | %21
 !open![DF]2 z :|[K:bass] z | z (!1!A,2 !2!^G, | !1!A,2) z2 | z !1!B,2 !2!^A, | !1!B,2 z2 | %27
 z[K:treble] (!1!F2 !1!^E | !open!!2!F2) z A |"_" A2 B2 | !2!A z[K:bass] (([C,B,]2 | %31
 [F,A,])) z (([C,B,]2 | [F,A,])) z !fermata!z2 | z (!2![D,A,]!1![G,B,][F,A,] | [E,B,]3) z | %35
 [A,C]2 [C,A,]2 | A,F,F, z |[K:treble] z (!2![DA]!1![GB][FA] | [EB]3) z | [A,CG]2 [A,CG]2 | %40
 [DF]2 z2 |[K:bass] z2 z F,- | F,2- F, z | z2 z !3!!1![B,D] | !2!!1![CE]3 !4!!2![A,C] | %45
 !1!D!2!A, !1![G,B,]!2![F,A,] | [E,B,]3 z | [A,C]2 [C,A,]2 | A,F,F, z | %49
[K:treble] z (!2![DA]!1![GB]!2![FA] | !1![EB]3) z | [A,CG]2 [A,CG]2 | [DF]2[K:bass] !5!!1![D,A,]2 | %53
 [D,A,]4 |] %54
V:3
 x | x4 |{/D} D3 x | x4 | x4 | x4 |{/D} D3 x | x4 | x3 :: x | x4 | !2!E2 D x | x4 | x4 | x4 | x4 | %16
 x4 | x4 | x4 | x4 | x4 | x3 :| x | x4 | x4 | x4 | x4 | x4 | x4 | x4 | x4 | x4 | x4 | x4 | x4 | %35
 x4 | x4 | x4 | x4 | x4 | x4 | x4 | !2!E2 D x | x4 | x4 | x4 | x4 | x4 | x4 | x4 | x4 | x4 | x4 | %53
 x4 |] %54
V:4
 x | x4 | x4 | x4 | D,2- D, x | x4 | x4 | x4 | x3 :: x | x3 B,, | C,F,, B,, x | x4 | x4 | D,2 x2 | %15
 x4 | x4 | D,2- D, x |[K:treble] x4 | x4 | x4 | x3 :|[K:bass] x | x !3!F,E,!5!D, | !4!C,2 x2 | %25
 x (!2!=G,F,!4!E, | !5!D,2) x2 | x[K:treble] !2!D!3!C!4!B, | !5!A,2 x !5!^B, | !4-5!C4 | %30
 !3!F x[K:bass] x2 | x4 | x4 | x4 | x4 | x4 | D,2- D, x |[K:treble] x4 | x4 | x4 | x4 | %41
[K:bass] x3 (!3!B,, | !2!C,F,,!3!B,,) x | x4 | x4 | D,2 x2 | x4 | x4 | D,2- D, x |[K:treble] x4 | %50
 x4 | x4 | x2[K:bass] x2 | x4 |] %54

